icons/gear-16.svg

<svg xmlns="http://www.w3.org/2000/svg" width="16" height="16" viewBox="0 0 16 16"><path d="M8 0a8.2 8.2 0 01.701.031C9.444.095 9.99.645 10.16 1.29l.288 1.107c.018.066.079.158.212.224.231.114.454.243.668.386.123.082.233.09.299.071l1.103-.303c.644-.176 1.392.021 1.82.63.27.385.506.792.704 1.218.315.675.111 1.422-.364 1.891l-.814.806c-.049.048-.098.147-.088.294.016.257.016.515 0 .772-.01.147.038.246.088.294l.814.806c.475.469.679 1.216.364 1.891a7.977 7.977 0 01-.704 1.217c-.428.61-1.176.807-1.82.63l-1.102-.302c-.067-.019-.177-.011-.3.071a5.909 5.909 0 01-.668.386c-.133.066-.194.158-.211.224l-.29 1.106c-.168.646-.715 1.196-1.458 1.26a8.006 8.006 0 01-1.402 0c-.743-.064-1.289-.614-1.458-1.26l-.289-1.106c-.018-.066-.079-.158-.212-.224a5.738 5.738 0 01-.668-.386c-.123-.082-.233-.09-.299-.071l-1.103.303c-.644.176-1.392-.021-1.82-.63a8.12 8.12 0 01-.704-1.218c-.315-.675-.111-1.422.363-1.891l.815-.806c.05-.048.098-.147.088-.294a6.214 6.214 0 010-.772c.01-.147-.038-.246-.088-.294l-.815-.806C.635 6.045.431 5.298.746 4.623a7.92 7.92 0 01.704-1.217c.428-.61 1.176-.807 1.82-.63l1.102.302c.067.019.177.011.3-.071.214-.143.437-.272.668-.386.133-.066.194-.158.211-.224l.29-1.106C6.009.645 6.556.095 7.299.03 7.53.01 7.764 0 8 0zm-.571 1.525c-.036.003-.108.036-.137.146l-.289 1.105c-.147.561-.549.967-.998 1.189-.173.086-.34.183-.5.29-.417.278-.97.423-1.529.27l-1.103-.303c-.109-.03-.175.016-.195.045-.22.312-.412.644-.573.99-.014.031-.021.11.059.19l.815.806c.411.406.562.957.53 1.456a4.709 4.709 0 000 .582c.032.499-.119 1.05-.53 1.456l-.815.806c-.081.08-.073.159-.059.19.162.346.353.677.573.989.02.03.085.076.195.046l1.102-.303c.56-.153 1.113-.008 1.53.27.161.107.328.204.501.29.447.222.85.629.997 1.189l.289 1.105c.029.109.101.143.137.146a6.6 6.6 0 001.142 0c.036-.003.108-.036.137-.146l.289-1.105c.147-.561.549-.967.998-1.189.173-.086.34-.183.5-.29.417-.278.97-.423 1.529-.27l1.103.303c.109.029.175-.016.195-.045.22-.313.411-.644.573-.99.014-.031.021-.11-.059-.19l-.815-.806c-.411-.406-.562-.957-.53-1.456a4.709 4.709 0 000-.582c-.032-.499.119-1.05.53-1.456l.815-.806c.081-.08.073-.159.059-.19a6.464 6.464 0 00-.573-.989c-.02-.03-.085-.076-.195-.046l-1.102.303c-.56.153-1.113.008-1.53-.27a4.44 4.44 0 00-.501-.29c-.447-.222-.85-.629-.997-1.189l-.289-1.105c-.029-.11-.101-.143-.137-.146a6.6 6.6 0 00-1.142 0zM11 8a3 3 0 11-6 0 3 3 0 016 0zM9.5 8a1.5 1.5 0 10-3.001.001A1.5 1.5 0 009.5 8z"/></svg>

<svg xmlns="http://www.w3.org/2000/svg" width="16" height="16" viewBox="0 0 16 16">
  <defs/>
  <path d="M8,0 C8.234,0 8.468,0.011 8.701,0.031 C9.444,0.095 9.99,0.645 10.16,1.29 L10.448,2.397 C10.466,2.463 10.527,2.555 10.66,2.621 C10.891,2.735 11.114,2.864 11.328,3.007 C11.451,3.089 11.561,3.097 11.627,3.078 L12.73,2.775 C13.374,2.599 14.122,2.796 14.55,3.405 C14.82,3.79 15.056,4.197 15.254,4.623 C15.569,5.298 15.365,6.045 14.89,6.514 L14.076,7.32 C14.027,7.368 13.978,7.467 13.988,7.614 C14.004,7.871 14.004,8.129 13.988,8.386 C13.978,8.533 14.026,8.632 14.076,8.68 L14.89,9.486 C15.365,9.955 15.569,10.702 15.254,11.377 C15.055,11.805 14.818,12.212 14.55,12.594 C14.122,13.204 13.374,13.401 12.73,13.224 L11.628,12.922 C11.561,12.903 11.451,12.911 11.328,12.993 C11.114,13.136 10.891,13.265 10.66,13.379 C10.527,13.445 10.466,13.537 10.449,13.603 L10.159,14.709 C9.991,15.355 9.444,15.905 8.701,15.969 C8.235,16.01 7.765,16.01 7.299,15.969 C6.556,15.905 6.01,15.355 5.841,14.709 L5.552,13.603 C5.534,13.537 5.473,13.445 5.34,13.379 C5.108,13.265 4.885,13.136 4.672,12.993 C4.549,12.911 4.439,12.903 4.373,12.922 L3.27,13.225 C2.626,13.401 1.878,13.204 1.45,12.595 C1.182,12.212 0.946,11.805 0.746,11.377 C0.431,10.702 0.635,9.955 1.109,9.486 L1.924,8.68 C1.974,8.632 2.022,8.533 2.012,8.386 C1.996,8.129 1.996,7.871 2.012,7.614 C2.022,7.467 1.974,7.368 1.924,7.32 L1.109,6.514 C0.635,6.045 0.431,5.298 0.746,4.623 C0.944,4.197 1.18,3.79 1.45,3.406 C1.878,2.796 2.626,2.599 3.27,2.776 L4.372,3.078 C4.439,3.097 4.549,3.089 4.672,3.007 C4.886,2.864 5.109,2.735 5.34,2.621 C5.473,2.555 5.534,2.463 5.551,2.397 L5.841,1.291 C6.009,0.645 6.556,0.095 7.299,0.03 C7.53,0.01 7.764,0 8,0 Z M7.429,1.525 C7.393,1.528 7.321,1.561 7.292,1.671 L7.003,2.776 C6.856,3.337 6.454,3.743 6.005,3.965 C5.832,4.051 5.665,4.148 5.505,4.255 C5.088,4.533 4.535,4.678 3.976,4.525 L2.873,4.222 C2.764,4.192 2.698,4.238 2.678,4.267 C2.458,4.579 2.266,4.911 2.105,5.257 C2.091,5.288 2.084,5.367 2.164,5.447 L2.979,6.253 C3.39,6.659 3.541,7.21 3.509,7.709 C3.497,7.903 3.497,8.097 3.509,8.291 C3.541,8.79 3.39,9.341 2.979,9.747 L2.164,10.553 C2.083,10.633 2.091,10.712 2.105,10.743 C2.267,11.089 2.458,11.42 2.678,11.732 C2.698,11.762 2.763,11.808 2.873,11.778 L3.975,11.475 C4.535,11.322 5.088,11.467 5.505,11.745 C5.666,11.852 5.833,11.949 6.006,12.035 C6.453,12.257 6.856,12.664 7.003,13.224 L7.292,14.329 C7.321,14.438 7.393,14.472 7.429,14.475 C7.809,14.508 8.191,14.508 8.571,14.475 C8.607,14.472 8.679,14.439 8.708,14.329 L8.997,13.224 C9.144,12.663 9.546,12.257 9.995,12.035 C10.168,11.949 10.335,11.852 10.495,11.745 C10.912,11.467 11.465,11.322 12.024,11.475 L13.127,11.778 C13.236,11.807 13.302,11.762 13.322,11.733 C13.542,11.42 13.733,11.089 13.895,10.743 C13.909,10.712 13.916,10.633 13.836,10.553 L13.021,9.747 C12.61,9.341 12.459,8.79 12.491,8.291 C12.503,8.097 12.503,7.903 12.491,7.709 C12.459,7.21 12.61,6.659 13.021,6.253 L13.836,5.447 C13.917,5.367 13.909,5.288 13.895,5.257 C13.732,4.909 13.541,4.578 13.322,4.268 C13.302,4.238 13.237,4.192 13.127,4.222 L12.025,4.525 C11.465,4.678 10.912,4.533 10.495,4.255 C10.335,4.148 10.168,4.051 9.994,3.965 C9.547,3.743 9.144,3.336 8.997,2.776 L8.708,1.671 C8.679,1.561 8.607,1.528 8.571,1.525 C8.191,1.492 7.809,1.492 7.429,1.525 Z M11,8 C11,9.657 9.657,11 8,11 C6.343,11 5,9.657 5,8 C5,6.343 6.343,5 8,5 C9.657,5 11,6.343 11,8 Z M9.5,8 C9.5,7.172 8.828,6.5 8,6.5 C7.172,6.5 6.5,7.172 6.5,8 C6.5,8.828 7.172,9.5 8,9.5 C8.828,9.5 9.5,8.828 9.5,8 Z"/>
</svg>
